X: 11390
T: Early Morning Hay Dance
R: hornpipe
M: 4/4
K: Dmajor
E2|B3/2E/ B3/2E/ Bc d2|A3/2D/ A3/2D/ AB dc|BA B3/2e/ fe dB|A2 GF A3/2G/:|
EE|E2 F3/2B/ dc Bc|d2 c3/2d/ B/A3/2 B3/2A/|ED F3/2B/ dc Bc|d2 ef e/d3/2 B2|
B3/2E/ B3/2E/ Bc d2|A3/2D/ A3/2D/ AB dc|BA B3/2e/ fe dB|A2 GF A3/2G/||

